X: 2
T: Burning Down the Piper's Hut
M: C|
L: 1/8
K: Edor
|:\
"Em"EFGA B3-B | BAB=c B2 AG |\
[1,3 "D"F2D2A2D2 | FGAB A2 GF :|\
[2,4 "D"F2D2B2 cd | F2E2"Em" E4 :|
|:\
"Em"EFGA B2E2 | d2E2 B2AG |\
[1,3 "D"F2D2 A2D2 | FGAB A2 GF :|\
[2,4 "D"F2D2 B2 cd | F2E2"Em" E4 :| y|\
["Trans" "D"F2D2 B2F2 | "E7"E2z2"No chord"A3B |


